X: 250
T:Qui velatus facie fuisti / Hora qui ductus tercia / Tertia pars: In flagellis potum fellis / In amara crucis ara / Qui jacuisti mortuus / Christum ducem, qui per crucem
N: Derived from Jos2203-Qui_velatus.krn
C: Josquin des Prez
%%abc-version 2.0
%%abcx-abcm2ps-target-version 5.9.1 (29 Sep 2008)
%%abc-creator hum2abc beta
%%abcx-conversion-date 2019/02/12 16:15:51
%%abc-edited-by Jesse Rodin
%%abc-edited-by Jesse Rodin; Victoria Chang 2011/05/27
%%abcx-initial-encoding-date 2011/05/27/
%%humdrum-veritas 2915371075
%%humdrum-veritas-data 2604268780
%%linebreak <none>
%%barnumbers 0
L: 1/4
M: 2/1
Q: 1/2=120
%%staves [1 2 3 4]
V: 1 clef=treble
V: 2 clef=treble-8
V: 3 clef=treble-8
V: 4 clef=bass
K: C
[V:1] z8 | 
[V:2] A8 | 
[V:3] z8 | 
[V:4] z8 | 
[V:1] z8 | 
[V:2] A4c4- | 
[V:3] z8 | 
[V:4] z8 | 
[V:1] z8 | 
[V:2] c4c4 | 
[V:3] z8 | 
[V:4] A,,8 | 
[V:1] z8 | 
[V:2] e8- | 
[V:3] z8 | 
[V:4] A,,4C,4- | 
[V:1] z8 | 
[V:2] e4e4 | 
[V:3] z8 | 
[V:4] C,4C,4 | 
[V:1] z8 | 
[V:2] f4e4 | 
[V:3] A8- | 
[V:4] D,4C,4 | 
[V:1] z8 | 
[V:2] d4c4 | 
[V:3] A8 | 
[V:4] D,4E,4 | 
[V:1] z8 | 
[V:2] d8 | 
[V:3] A8 | 
[V:4] F,8 | 
[V:1] E8 | 
[V:2] e8- | 
[V:3] c8 | 
[V:4] C,8- | 
[V:1] E4G4- | 
[V:2] e8- | 
[V:3] c8 | 
[V:4] C,8- | 
[V:1] G4G4 | 
[V:2] e8 | 
[V:3] c8- | 
[V:4] C,8 | 
[V:1] A4G4 | 
[V:2] A4e4- | 
[V:3] c4c4 | 
[V:4] F,4E,4 | 
[V:1] A4B4 | 
[V:2] e8 | 
[V:3] c4B4 | 
[V:4] A,4G,4 | 
[V:1] c8 | 
[V:2] c6d2 | 
[V:3] A8 | 
[V:4] F,8 | 
[V:1] !fermata!G8 | 
[V:2] !fermata!e8 | 
[V:3] !fermata!B8 | 
[V:4] !fermata!E,8 | 
[V:1] z8 | 
[V:2] A8 | 
[V:3] z8 | 
[V:4] z8 | 
[V:1] z8 | 
[V:2] A4c4- | 
[V:3] z8 | 
[V:4] z8 | 
[V:1] z8 | 
[V:2] c4c4 | 
[V:3] z8 | 
[V:4] A,,8 | 
[V:1] z8 | 
[V:2] e8- | 
[V:3] z8 | 
[V:4] A,,4C,4- | 
[V:1] z8 | 
[V:2] e4e4 | 
[V:3] z8 | 
[V:4] C,4C,4 | 
[V:1] z8 | 
[V:2] f4e4 | 
[V:3] A8- | 
[V:4] D,4C,4 | 
[V:1] z8 | 
[V:2] d4c4 | 
[V:3] A8 | 
[V:4] D,4E,4 | 
[V:1] z8 | 
[V:2] d8 | 
[V:3] A8 | 
[V:4] F,8 | 
[V:1] E8 | 
[V:2] e8- | 
[V:3] c8- | 
[V:4] C,8- | 
[V:1] E4G4- | 
[V:2] e8- | 
[V:3] c4c4 | 
[V:4] C,8- | 
[V:1] G4G4 | 
[V:2] e8 | 
[V:3] c4c4 | 
[V:4] C,8 | 
[V:1] A4G4 | 
[V:2] A4e4- | 
[V:3] c8- | 
[V:4] F,4E,4 | 
[V:1] A4B4 | 
[V:2] e8 | 
[V:3] c4B4 | 
[V:4] A,4G,4 | 
[V:1] c8 | 
[V:2] c6d2 | 
[V:3] A8 | 
[V:4] F,8 | 
[V:1] !fermata!G8 | 
[V:2] !fermata!e8 | 
[V:3] !fermata!B8 | 
[V:4] !fermata!E,8 | 
[V:1] G8 | 
[V:2] e8 | 
[V:3] c8 | 
[V:4] C,8 | 
[V:1] G4F4- | 
[V:2] e4d4- | 
[V:3] c4A4- | 
[V:4] C,4D,4- | 
[V:1] F4E4 | 
[V:2] d4c4 | 
[V:3] A4A4 | 
[V:4] D,4A,,4 | 
[V:1] !fermata!E8 | 
[V:2] !fermata!c8 | 
[V:3] !fermata!A8 | 
[V:4] !fermata!A,,8 | 
[V:1] E8 | 
[V:2] e8 | 
[V:3] c8 | 
[V:4] A,,8 | 
[V:1] G4G4- | 
[V:2] e8 | 
[V:3] c4B4 | 
[V:4] E,8 | 
[V:1] G4A4 | 
[V:2] e4c4 | 
[V:3] c8 | 
[V:4] E,4F,4 | 
[V:1] A4^G4- | 
[V:2] f4e4- | 
[V:3] d4B4- | 
[V:4] D,4E,4- | 
[V:1] G4A4 | 
[V:2] e4c4 | 
[V:3] B4A4 | 
[V:4] E,4A,,4 | 
[V:1] !fermata!A8 | 
[V:2] !fermata!c8 | 
[V:3] !fermata!A8 | 
[V:4] !fermata!A,,8 | 
[V:1] E8 | 
[V:2] e8 | 
[V:3] c8 | 
[V:4] A,,8 | 
[V:1] G4G4- | 
[V:2] e4e4- | 
[V:3] c4B4 | 
[V:4] E,8 | 
[V:1] G4A4 | 
[V:2] e4c4 | 
[V:3] c8 | 
[V:4] E,4F,4 | 
[V:1] A4^G4- | 
[V:2] f4e4- | 
[V:3] d4B4- | 
[V:4] D,4E,4- | 
[V:1] G4A4 | 
[V:2] e4c4 | 
[V:3] B4A4 | 
[V:4] E,4A,,4 | 
[V:1] !fermata!A8 | 
[V:2] !fermata!c8 | 
[V:3] !fermata!A8 | 
[V:4] !fermata!A,,8 | 
[V:1] A4A4 | 
[V:2] f4f4 | 
[V:3] c4c4 | 
[V:4] F,4F,4 | 
[V:1] A4A4- | 
[V:2] f4f4- | 
[V:3] c4c4- | 
[V:4] F,4F,4- | 
[V:1] A4G4 | 
[V:2] f4e4 | 
[V:3] c4c4 | 
[V:4] F,4C,4 | 
[V:1] F8 | 
[V:2] d8 | 
[V:3] A8 | 
[V:4] D,8 | 
[V:1] E4E4- | 
[V:2] c4c4- | 
[V:3] A4A4- | 
[V:4] A,,4A,,4- | 
[V:1] E4z4 | 
[V:2] c4z4 | 
[V:3] A4z4 | 
[V:4] A,,4z4 | 
[V:1] F4F4 | 
[V:2] d4d4 | 
[V:3] A4A4 | 
[V:4] D,4D,4 | 
[V:1] F4F4- | 
[V:2] d4d4- | 
[V:3] A4A4- | 
[V:4] D,4D,4- | 
[V:1] F4E4 | 
[V:2] d4c4 | 
[V:3] A4A4 | 
[V:4] D,4A,,4 | 
[V:1] D8 | 
[V:2] _B8 | 
[V:3] F8 | 
[V:4] _B,,8 | 
[V:1] C4C4- | 
[V:2] A4A4- | 
[V:3] F4F4- | 
[V:4] F,,4F,,4- | 
[V:1] C4z4 | 
[V:2] A4z4 | 
[V:3] F4z4 | 
[V:4] F,,4z4 | 
[V:1] D4D4 | 
[V:2] z8 | 
[V:3] D4D4 | 
[V:4] z8 | 
[V:1] D4D4- | 
[V:2] z8 | 
[V:3] D4F4- | 
[V:4] z8 | 
[V:1] D4C4 | 
[V:2] z8 | 
[V:3] F4F4 | 
[V:4] z8 | 
[V:1] B,8 | 
[V:2] z8 | 
[V:3] G8 | 
[V:4] z8 | 
[V:1] A,4A,4- | 
[V:2] z8 | 
[V:3] A4A4- | 
[V:4] z8 | 
[V:1] A,4z4 | 
[V:2] z8 | 
[V:3] A4z4 | 
[V:4] z8 | 
[V:1] E4E4 | 
[V:2] c4c4 | 
[V:3] G4G4 | 
[V:4] C,4C,4 | 
[V:1] E4F4- | 
[V:2] c4c4- | 
[V:3] G4A4- | 
[V:4] C,4F,4- | 
[V:1] F4E4 | 
[V:2] c4c4 | 
[V:3] A4G4 | 
[V:4] F,4C,4 | 
[V:1] D4C4 | 
[V:2] A4A4 | 
[V:3] F2D2E4 | 
[V:4] D,4A,,4 | 
[V:1] D8 | 
[V:2] F2D2d4 | 
[V:3] D8 | 
[V:4] _B,,8 | 
[V:1] E8- | 
[V:2] c8 | 
[V:3] A4c4- | 
[V:4] A,,8- | 
[V:1] E8- | 
[V:2] c8 | 
[V:3] c2B2A4 | 
[V:4] A,,4C,4- | 
[V:1] E8- | 
[V:2] z4c4 | 
[V:3] G4A4 | 
[V:4] C,2B,,2A,,4 | 
[V:1] E8- | 
[V:2] B4A4 | 
[V:3] E8- | 
[V:4] G,,4A,,4 | 
[V:1] E8- | 
[V:2] c6B2 | 
[V:3] E8- | 
[V:4] E,,8- | 
[V:1] E8- | 
[V:2] G6A2 | 
[V:3] E8- | 
[V:4] E,,8- | 
[V:1] E8 ||  
[V:2] B8 ||  
[V:3] E8 ||  
[V:4] E,,8 ||  
[V:1] [M:2/1]z8 | 
[V:2] [M:2/1]z8 | 
[V:3] [M:2/1]z8 | 
[V:4] [M:2/1]A,,8 | 
[V:1] z8 | 
[V:2] z8 | 
[V:3] z8 | 
[V:4] C,4C,4 | 
[V:1] z8 | 
[V:2] z8 | 
[V:3] z8 | 
[V:4] D,4D,4 | 
[V:1] z8 | 
[V:2] A8 | 
[V:3] z8 | 
[V:4] D,4D,4 | 
[V:1] z8 | 
[V:2] c4c4 | 
[V:3] E8 | 
[V:4] C,8 | 
[V:1] z8 | 
[V:2] d4d4 | 
[V:3] G4G4 | 
[V:4] G,,8 | 
[V:1] z8 | 
[V:2] d4d4 | 
[V:3] A4A4 | 
[V:4] D,8 | 
[V:1] E8 | 
[V:2] c8 | 
[V:3] A4A4 | 
[V:4] A,,8 | 
[V:1] G4G4 | 
[V:2] B4c4- | 
[V:3] G8 | 
[V:4] E,8 | 
[V:1] A4A4 | 
[V:2] c2A2A4 | 
[V:3] z8 | 
[V:4] F,8- | 
[V:1] A4A4 | 
[V:2] f8 | 
[V:3] z8 | 
[V:4] F,8 | 
[V:1] G8- | 
[V:2] e8- | 
[V:3] c8 | 
[V:4] C,8 | 
[V:1] G8 | 
[V:2] e8 | 
[V:3] c4c4 | 
[V:4] C,6D,2 | 
[V:1] z8 | 
[V:2] z8 | 
[V:3] c6BA | 
[V:4] E,4F,4 | 
[V:1] z8 | 
[V:2] z8 | 
[V:3] c4B4- | 
[V:4] E,4D,4- | 
[V:1] z8 | 
[V:2] z8 | 
[V:3] B2A2A4- | 
[V:4] D,4C,4 | 
[V:1] z8 | 
[V:2] z8 | 
[V:3] A4^G4 | 
[V:4] B,,8 | 
[V:1] c8 | 
[V:2] z4A4 | 
[V:3] A8- | 
[V:4] A,,8- | 
[V:1] c4c4 | 
[V:2] c6d2 | 
[V:3] A8 | 
[V:4] A,,8 | 
[V:1] c6BA | 
[V:2] e4f4 | 
[V:3] z8 | 
[V:4] z8 | 
[V:1] c4B4- | 
[V:2] e4d4- | 
[V:3] z8 | 
[V:4] z8 | 
[V:1] B2A2A4- | 
[V:2] d4c4 | 
[V:3] z8 | 
[V:4] z8 | 
[V:1] A4^G4 | 
[V:2] B8 | 
[V:3] z8 | 
[V:4] E,8 | 
[V:1] A8- | 
[V:2] A4c4 | 
[V:3] z8 | 
[V:4] F,8 | 
[V:1] A4c4- | 
[V:2] d4e4 | 
[V:3] z8 | 
[V:4] D,4A,4- | 
[V:1] c4B4 | 
[V:2] f4g2e2- | 
[V:3] z8 | 
[V:4] A,4G,4 | 
[V:1] A8 | 
[V:2] e2dcd4 | 
[V:3] z4A4 | 
[V:4] F,8 | 
[V:1] G8 | 
[V:2] e8 | 
[V:3] B4c4 | 
[V:4] E,8 | 
[V:1] z8 | 
[V:2] f8 | 
[V:3] d6c2 | 
[V:4] z4D,4 | 
[V:1] z8 | 
[V:2] e4A4 | 
[V:3] B4A4 | 
[V:4] E,4F,4 | 
[V:1] z4D4 | 
[V:2] B3ABcd2- | 
[V:3] G8 | 
[V:4] G,6F,2 | 
[V:1] E4F4 | 
[V:2] d2c2d2f2 | 
[V:3] z8 | 
[V:4] E,4D,4 | 
[V:1] G6F2 | 
[V:2] e8 | 
[V:3] z4G4 | 
[V:4] C,8 | 
[V:1] E4D4 | 
[V:2] z8 | 
[V:3] A4B4 | 
[V:4] z8 | 
[V:1] C8 | 
[V:2] e6de | 
[V:3] c6B2 | 
[V:4] z4C,4 | 
[V:1] z8 | 
[V:2] fedcB4 | 
[V:3] A4G4 | 
[V:4] D,4E,4 | 
[V:1] z4C4 | 
[V:2] A2d3cc2- | 
[V:3] A8 | 
[V:4] F,6E,2 | 
[V:1] D4E4 | 
[V:2] c2B2c4 | 
[V:3] F4G4 | 
[V:4] D,4C,4 | 
[V:1] F6E2 | 
[V:2] A2d2c3B | 
[V:3] F2_B2A2G2- | 
[V:4] D,3E,F,2C,2 | 
[V:1] D4C4 | 
[V:2] A2G2A4 | 
[V:3] GFEDE4 | 
[V:4] D,2_B,,2A,,4 | 
[V:1] D8- | 
[V:2] F4_B4 | 
[V:3] D8 | 
[V:4] _B,,4G,,4 | 
[V:1] D8 | 
[V:2] A2d3c_BA | 
[V:3] z8 | 
[V:4] D,3E,F,2G,2- | 
[V:1] z8 | 
[V:2] _B2A2_B4 | 
[V:3] d4d2d2 | 
[V:4] G,2F,2G,2D,2- | 
[V:1] z8 | 
[V:2] A4z4 | 
[V:3] d6d2 | 
[V:4] D,E,F,2G,2_B,2- | 
[V:1] z8 | 
[V:2] z8 | 
[V:3] c4_B4 | 
[V:4] B,A,A,4G,2 | 
[V:1] A4A2A2 | 
[V:2] z2A3Bc2 | 
[V:3] A8 | 
[V:4] A,4A,,4 | 
[V:1] A6A2 | 
[V:2] d2c2dcf2- | 
[V:3] z8 | 
[V:4] z8 | 
[V:1] G4F4 | 
[V:2] fee4d2 | 
[V:3] z8 | 
[V:4] z8 | 
[V:1] E8 | 
[V:2] e3cc4 | 
[V:3] c4c2c2 | 
[V:4] z2A,,3B,,C,D, | 
[V:1] z8 | 
[V:2] z8 | 
[V:3] c6c2 | 
[V:4] E,2F,2C,2E,2- | 
[V:1] z8 | 
[V:2] z8 | 
[V:3] B4A4 | 
[V:4] E,D,G,4^F,2 | 
[V:1] G4G2G2 | 
[V:2] z2G3AB2 | 
[V:3] G8 | 
[V:4] G,4G,,4 | 
[V:1] G6G2 | 
[V:2] c2B2cBe2- | 
[V:3] z8 | 
[V:4] z8 | 
[V:1] F4E4 | 
[V:2] edd4^c2 | 
[V:3] z8 | 
[V:4] z8 | 
[V:1] D8 | 
[V:2] d4z4 | 
[V:3] z8 | 
[V:4] z8 | 
[V:1] [M:3/1]D4D4D4 | 
[V:2] [M:3/1]f4f4f4 | 
[V:3] [M:3/1]d4d4d4 | 
[V:4] [M:3/1]D,4D,4D,4 | 
[V:1] A8A4 | 
[V:2] f8f4 | 
[V:3] d8d4 | 
[V:4] D,6E,2F,4 | 
[V:1] B4A4^G4 | 
[V:2] d4f4e4 | 
[V:3] d4c4B4 | 
[V:4] G,4A,4E,4 | 
[V:1] A8z4 | 
[V:2] c8z4 | 
[V:3] A8z4 | 
[V:4] A,,8z4 | 
[V:1] [M:2/1]E4E4 | 
[V:2] [M:2/1]c4c4 | 
[V:3] [M:2/1]G4G4 | 
[V:4] [M:2/1]C,4C,4 | 
[V:1] E4F4- | 
[V:2] c4c4- | 
[V:3] G4A4- | 
[V:4] C,4F,4- | 
[V:1] F4E4 | 
[V:2] c4c4 | 
[V:3] A4G4 | 
[V:4] F,4C,4 | 
[V:1] D4C4 | 
[V:2] A4A4 | 
[V:3] F2D2E4 | 
[V:4] D,4A,,4 | 
[V:1] D8 | 
[V:2] F2D2d4 | 
[V:3] D8 | 
[V:4] B,,8 | 
[V:1] E8- | 
[V:2] c8- | 
[V:3] A4c4- | 
[V:4] A,,8- | 
[V:1] E8- | 
[V:2] c8 | 
[V:3] c2B2A4 | 
[V:4] A,,4C,4- | 
[V:1] E8- | 
[V:2] z4c4 | 
[V:3] G4A4 | 
[V:4] C,2B,,2A,,4 | 
[V:1] E8- | 
[V:2] B4A4 | 
[V:3] E8- | 
[V:4] G,,4A,,4 | 
[V:1] E8- | 
[V:2] c6B2 | 
[V:3] E8- | 
[V:4] E,,8- | 
[V:1] E8 ||  
[V:2] G8 ||  
[V:3] E8 ||  
[V:4] E,,8 ||  
[V:1] [M:2/1]A8 | 
[V:2] [M:2/1]e8 | 
[V:3] [M:2/1]A8 | 
[V:4] [M:2/1]A,8 | 
[V:1] A8 | 
[V:2] e4c4- | 
[V:3] c8 | 
[V:4] A,8 | 
[V:1] A8- | 
[V:2] c4A4 | 
[V:3] c8- | 
[V:4] F,8- | 
[V:1] A4F4 | 
[V:2] A8- | 
[V:3] c4d4 | 
[V:4] F,4D,4 | 
[V:1] !fermata!F8- | 
[V:2] A8 | 
[V:3] d6c2 | 
[V:4] !fermata!D,8- | 
[V:1] F8 | 
[V:2] !fermata!d8 | 
[V:3] !fermata!A8 | 
[V:4] D,8 | 
[V:1] G8 | 
[V:2] d8 | 
[V:3] G8 | 
[V:4] G,8 | 
[V:1] G8 | 
[V:2] d4B4- | 
[V:3] B8 | 
[V:4] G,8 | 
[V:1] G8- | 
[V:2] B4G4 | 
[V:3] B8- | 
[V:4] E,8- | 
[V:1] G4E4 | 
[V:2] G8- | 
[V:3] B4c4 | 
[V:4] E,4C,4 | 
[V:1] !fermata!E8- | 
[V:2] G8 | 
[V:3] c6B2 | 
[V:4] !fermata!C,8- | 
[V:1] E8 | 
[V:2] !fermata!c8 | 
[V:3] !fermata!G8 | 
[V:4] C,8 | 
[V:1] F8 | 
[V:2] A8 | 
[V:3] d8 | 
[V:4] D,8 | 
[V:1] F4F4 | 
[V:2] F8 | 
[V:3] A4B4 | 
[V:4] D,4D,4 | 
[V:1] E4E4 | 
[V:2] G8 | 
[V:3] c6B2 | 
[V:4] C,8- | 
[V:1] G6F2 | 
[V:2] E4E4 | 
[V:3] G4A4 | 
[V:4] C,4C,4 | 
[V:1] D4D4 | 
[V:2] G6F2 | 
[V:3] _B6A2 | 
[V:4] _B,,8- | 
[V:1] F6E2 | 
[V:2] D4D4 | 
[V:3] F4G4 | 
[V:4] B,,4_B,,4 | 
[V:1] !fermata!C8 | 
[V:2] !fermata!E8 | 
[V:3] !fermata!A8 | 
[V:4] !fermata!A,,8 | 
[V:1] E4E4 | 
[V:2] c4c4 | 
[V:3] z8 | 
[V:4] z8 | 
[V:1] E4G4- | 
[V:2] c4B4- | 
[V:3] z8 | 
[V:4] z8 | 
[V:1] G4G4 | 
[V:2] B4c4 | 
[V:3] z8 | 
[V:4] z8 | 
[V:1] A6^G^F | 
[V:2] A4B4- | 
[V:3] z8 | 
[V:4] z8 | 
[V:1] ^G4A4- | 
[V:2] B4A4- | 
[V:3] z8 | 
[V:4] z8 | 
[V:1] A4z4 | 
[V:2] A4z4 | 
[V:3] z8 | 
[V:4] z8 | 
[V:1] A8- | 
[V:2] c8 | 
[V:3] A4A4 | 
[V:4] F,4F,4 | 
[V:1] A4G4- | 
[V:2] d4e4- | 
[V:3] A4c4- | 
[V:4] F,4E,4- | 
[V:1] G4A4 | 
[V:2] e4A4 | 
[V:3] c4c4 | 
[V:4] E,4F,4 | 
[V:1] F4G4- | 
[V:2] B4G4- | 
[V:3] d6^cB | 
[V:4] D,4E,4- | 
[V:1] G2FEF4- | 
[V:2] G4A4- | 
[V:3] ^c4d4- | 
[V:4] E,4D,4- | 
[V:1] F4z4 | 
[V:2] A4z4 | 
[V:3] d4z4 | 
[V:4] D,4z4 | 
[V:1] A4A4 | 
[V:2] f4f4 | 
[V:3] d4d4 | 
[V:4] D,4D,4 | 
[V:1] B4c4- | 
[V:2] f4g4- | 
[V:3] d4e4- | 
[V:4] D,4C,4- | 
[V:1] c4c4 | 
[V:2] g4f4 | 
[V:3] e4c4 | 
[V:4] C,4A,,4 | 
[V:1] B6B2 | 
[V:2] g8 | 
[V:3] d8 | 
[V:4] G,,8 | 
[V:1] c3BG4- | 
[V:2] e4e4- | 
[V:3] c4c4- | 
[V:4] A,,3B,,C,4- | 
[V:1] G4z4 | 
[V:2] e4z4 | 
[V:3] c4z4 | 
[V:4] C,4z4 | 
[V:1] E4E4 | 
[V:2] c4c4 | 
[V:3] z8 | 
[V:4] z8 | 
[V:1] E4G4- | 
[V:2] c4B4- | 
[V:3] z8 | 
[V:4] z8 | 
[V:1] G4G4 | 
[V:2] B4c4 | 
[V:3] z8 | 
[V:4] z8 | 
[V:1] A6^G^F | 
[V:2] A4B4- | 
[V:3] z8 | 
[V:4] z8 | 
[V:1] ^G4A4- | 
[V:2] B4A4- | 
[V:3] z8 | 
[V:4] z8 | 
[V:1] A4z4 | 
[V:2] A4z4 | 
[V:3] z8 | 
[V:4] z8 | 
[V:1] A8- | 
[V:2] c8 | 
[V:3] A4A4 | 
[V:4] F,4F,4 | 
[V:1] A4G4- | 
[V:2] d4e4- | 
[V:3] A4c4- | 
[V:4] F,4E,4- | 
[V:1] G4A4 | 
[V:2] e4A4 | 
[V:3] c4c4 | 
[V:4] E,4F,4 | 
[V:1] F4G4- | 
[V:2] B4G4- | 
[V:3] d6^cB | 
[V:4] D,4E,4- | 
[V:1] G2FEF4- | 
[V:2] G4A4- | 
[V:3] ^c4d4- | 
[V:4] E,4D,4- | 
[V:1] F4z4 | 
[V:2] A4z4 | 
[V:3] d4z4 | 
[V:4] D,4z4 | 
[V:1] E4E4 | 
[V:2] c4c4 | 
[V:3] G4G4 | 
[V:4] C,4C,4 | 
[V:1] E4F4- | 
[V:2] c4c4- | 
[V:3] G4A4- | 
[V:4] C,4F,4- | 
[V:1] F4E4 | 
[V:2] c4c4 | 
[V:3] A4G4 | 
[V:4] F,4C,4 | 
[V:1] D4C4 | 
[V:2] A4A4 | 
[V:3] F2D2E4 | 
[V:4] D,4A,,4 | 
[V:1] D8 | 
[V:2] F2D2d4 | 
[V:3] D8 | 
[V:4] B,,8 | 
[V:1] E8- | 
[V:2] c8- | 
[V:3] A4c4- | 
[V:4] A,,8- | 
[V:1] E8- | 
[V:2] c8 | 
[V:3] c2B2A4 | 
[V:4] A,,4C,4- | 
[V:1] E8- | 
[V:2] z4c4 | 
[V:3] G4A4 | 
[V:4] C,2B,,2A,,4 | 
[V:1] E8- | 
[V:2] B4A4 | 
[V:3] E8- | 
[V:4] G,,4A,,4 | 
[V:1] E8- | 
[V:2] c6B2 | 
[V:3] E8- | 
[V:4] E,,8- | 
[V:1] E8 | 
[V:2] G8 | 
[V:3] E8 | 
[V:4] E,,8 | 
[V:1] G8 | 
[V:2] e8 | 
[V:3] E8 | 
[V:4] E,8 | 
[V:1] !fermata!B8 | 
[V:2] !fermata!e8 | 
[V:3] !fermata!G8 | 
[V:4] !fermata!E,8 | 
[V:1] c8 | 
[V:2] c8 | 
[V:3] A8 | 
[V:4] A,,8 | 
[V:1] B4A4 | 
[V:2] g4f4 | 
[V:3] G4A4 | 
[V:4] E,4F,4 | 
[V:1] G8- | 
[V:2] e8- | 
[V:3] c8- | 
[V:4] C,8- | 
[V:1] G4G4 | 
[V:2] e4e4 | 
[V:3] c4c4 | 
[V:4] C,4C,4 | 
[V:1] !fermata!G8 | 
[V:2] !fermata!e8 | 
[V:3] !fermata!c8 | 
[V:4] !fermata!C,8 | 
[V:1] G8 | 
[V:2] c8 | 
[V:3] E8 | 
[V:4] C,8 | 
[V:1] E8 | 
[V:2] c8- | 
[V:3] G8 | 
[V:4] C,8 | 
[V:1] F8 | 
[V:2] c4c4 | 
[V:3] A8 | 
[V:4] F,8 | 
[V:1] G4F4 | 
[V:2] c4F4 | 
[V:3] G4A4 | 
[V:4] E,4D,4 | 
[V:1] E8- | 
[V:2] A8- | 
[V:3] c8- | 
[V:4] A,,8- | 
[V:1] E4E4 | 
[V:2] A4A4 | 
[V:3] c4c4 | 
[V:4] A,,4A,,4 | 
[V:1] !fermata!E8 | 
[V:2] !fermata!A8 | 
[V:3] !fermata!c8 | 
[V:4] !fermata!A,,8 | 
[V:1] c8 | 
[V:2] c8 | 
[V:3] e8 | 
[V:4] A,,8 | 
[V:1] c8 | 
[V:2] c4g4- | 
[V:3] e8 | 
[V:4] C,8 | 
[V:1] B4A4 | 
[V:2] g4f4 | 
[V:3] d4d4 | 
[V:4] G,,4D,4 | 
[V:1] c8- | 
[V:2] e8- | 
[V:3] c8- | 
[V:4] A,,6B,,2 | 
[V:1] c4G4 | 
[V:2] e4e4 | 
[V:3] c4c4 | 
[V:4] C,4C,4 | 
[V:1] !fermata!G8 | 
[V:2] !fermata!e8 | 
[V:3] !fermata!c8 | 
[V:4] !fermata!C,8 | 
[V:1] c8 | 
[V:2] g8 | 
[V:3] e8 | 
[V:4] C,8 | 
[V:1] B4A4 | 
[V:2] g4e4 | 
[V:3] d4c4 | 
[V:4] G,4A,4 | 
[V:1] !fermata!G8 | 
[V:2] !fermata!e8 | 
[V:3] !fermata!B8 | 
[V:4] !fermata!E,8 | 
[V:1] G8- | 
[V:2] e8- | 
[V:3] G8- | 
[V:4] E,8- | 
[V:1] G4G4 | 
[V:2] e4e4 | 
[V:3] G4G4 | 
[V:4] E,4E,4 | 
[V:1] G4E4 | 
[V:2] e8- | 
[V:3] G8- | 
[V:4] C,8- | 
[V:1] E8- | 
[V:2] e4c4 | 
[V:3] G4A4 | 
[V:4] C,4A,,4 | 
[V:1] E8 ||  
[V:2] c8 ||  
[V:3] A8 ||  
[V:4] A,,8 ||  
[V:1] z8 | 
[V:2] z8 | 
[V:3] E8 | 
[V:4] z4E,4 | 
[V:1] z8 | 
[V:2] z8 | 
[V:3] G4A4 | 
[V:4] E,4F,3E, | 
[V:1] z8 | 
[V:2] z8 | 
[V:3] A4G4 | 
[V:4] D,2C,2B,,4 | 
[V:1] E8 | 
[V:2] z4e4 | 
[V:3] z8 | 
[V:4] A,,8 | 
[V:1] G4A4 | 
[V:2] e4f3e | 
[V:3] z8 | 
[V:4] z8 | 
[V:1] A4G4 | 
[V:2] d2c2B4 | 
[V:3] z4G4 | 
[V:4] z4E,4 | 
[V:1] z8 | 
[V:2] A8 | 
[V:3] A4c4- | 
[V:4] F,6E,2 | 
[V:1] z8 | 
[V:2] z8 | 
[V:3] c2B2A4 | 
[V:4] C,4D,4 | 
[V:1] z4G4 | 
[V:2] z4e4 | 
[V:3] G8 | 
[V:4] E,8 | 
[V:1] A4c4- | 
[V:2] f6e2 | 
[V:3] z8 | 
[V:4] z8 | 
[V:1] c2B2A4 | 
[V:2] c4d4 | 
[V:3] z8 | 
[V:4] z8 | 
[V:1] G8 | 
[V:2] e8 | 
[V:3] z4G4 | 
[V:4] z4E,4 | 
[V:1] z8 | 
[V:2] z8 | 
[V:3] A4B4 | 
[V:4] F,4E,4 | 
[V:1] z4G4 | 
[V:2] z4z2e2- | 
[V:3] c4B2c2- | 
[V:4] A,,4E,4 | 
[V:1] A4B4 | 
[V:2] e2f4ed | 
[V:3] cBA4^G2 | 
[V:4] C,2D,2B,,4 | 
[V:1] c4B2c2- | 
[V:2] f2e3de2 | 
[V:3] A4z4 | 
[V:4] A,,4z4 | 
[V:1] cBA4^G2 | 
[V:2] c2d2B4 | 
[V:3] z8 | 
[V:4] z4E,4 | 
[V:1] A8 | 
[V:2] A8 | 
[V:3] z4A4 | 
[V:4] F,4F,4 | 
[V:1] z8 | 
[V:2] z8 | 
[V:3] B4c4- | 
[V:4] E,4E,4 | 
[V:1] z4A4 | 
[V:2] z8 | 
[V:3] c2B2A4 | 
[V:4] F,4F,4 | 
[V:1] B4c4- | 
[V:2] z4e4 | 
[V:3] G8 | 
[V:4] E,8 | 
[V:1] c2B2A4 | 
[V:2] c4d4 | 
[V:3] z8 | 
[V:4] z8 | 
[V:1] G8 | 
[V:2] e8 | 
[V:3] z4G4 | 
[V:4] z4E,4 | 
[V:1] z8 | 
[V:2] z8 | 
[V:3] A2E2F4 | 
[V:4] C,4D,4 | 
[V:1] z4G4 | 
[V:2] z4e4 | 
[V:3] E8 | 
[V:4] E,8 | 
[V:1] A2E2F4 | 
[V:2] c4d4 | 
[V:3] z8 | 
[V:4] z8 | 
[V:1] E8 | 
[V:2] e8 | 
[V:3] C4E4- | 
[V:4] A,,8 | 
[V:1] z8 | 
[V:2] z4A4 | 
[V:3] E4F4 | 
[V:4] A,,4A,,4 | 
[V:1] z2E2D2E2- | 
[V:2] B2c2d2G2- | 
[V:3] G8 | 
[V:4] G,,2C,2B,,2C,2- | 
[V:1] EDCB,A,2F2- | 
[V:2] G2A3GFE | 
[V:3] E4F4- | 
[V:4] C,2A,,2D,4- | 
[V:1] FED4^C2 | 
[V:2] D2_B2A4 | 
[V:3] F2G2E4 | 
[V:4] D,2G,,2A,,4 | 
[V:1] D2A2G2A2- | 
[V:2] z2d2e2f2- | 
[V:3] D8 | 
[V:4] z8 | 
[V:1] AGFEF4 | 
[V:2] fedcd4 | 
[V:3] z8 | 
[V:4] z8 | 
[V:1] !fermata!E8 | 
[V:2] !fermata!c8 | 
[V:3] !fermata!A8 | 
[V:4] !fermata!A,,8 | 
[V:1] z8 | 
[V:2] z4A4 | 
[V:3] z8 | 
[V:4] A,,8 | 
[V:1] z8 | 
[V:2] G4F4- | 
[V:3] z8 | 
[V:4] C,4D,4 | 
[V:1] z8 | 
[V:2] F4E4 | 
[V:3] z8 | 
[V:4] D,4C,4 | 
[V:1] z4A4 | 
[V:2] z8 | 
[V:3] A8 | 
[V:4] z8 | 
[V:1] G4F4- | 
[V:2] z8 | 
[V:3] c4d4 | 
[V:4] z8 | 
[V:1] F4E4 | 
[V:2] z4z2G2 | 
[V:3] d4c4 | 
[V:4] z4C,4 | 
[V:1] z8 | 
[V:2] F2A3GFE | 
[V:3] z8 | 
[V:4] D,4F,4- | 
[V:1] z8 | 
[V:2] D2G2F2A2- | 
[V:3] z8 | 
[V:4] F,2E,2D,4 | 
[V:1] z4z2G2 | 
[V:2] A2GFE4 | 
[V:3] z4c4 | 
[V:4] C,8 | 
[V:1] F2A3GFE | 
[V:2] z8 | 
[V:3] d4f4- | 
[V:4] z8 | 
[V:1] D2G2F2A2- | 
[V:2] z8 | 
[V:3] f2e2d4 | 
[V:4] z8 | 
[V:1] A2GFE4 | 
[V:2] z2A2G2A2- | 
[V:3] c8 | 
[V:4] z4C,4 | 
[V:1] z8 | 
[V:2] A2GFG2E2 | 
[V:3] z8 | 
[V:4] D,4E,4 | 
[V:1] z2A2G2A2- | 
[V:2] D4z4 | 
[V:3] z4c4 | 
[V:4] F,4E,2F,2- | 
[V:1] A2GFE2G2 | 
[V:2] z8 | 
[V:3] d4e4 | 
[V:4] F,E,D,4^C,2 | 
[V:1] F2A2G2A2- | 
[V:2] z8 | 
[V:3] f4e2f2- | 
[V:4] D,4z4 | 
[V:1] A2GFE4 | 
[V:2] z8 | 
[V:3] fed4^c2 | 
[V:4] z8 | 
[V:1] D8 | 
[V:2] z2G2A2B2- | 
[V:3] d8 | 
[V:4] z4D,4 | 
[V:1] z4A4 | 
[V:2] B2c2A2d2- | 
[V:3] z8 | 
[V:4] E,4F,4- | 
[V:1] A2G2F4 | 
[V:2] d2G2A2B2 | 
[V:3] z4d4 | 
[V:4] F,2E,2D,4 | 
[V:1] E2C2D2A2- | 
[V:2] c4z4 | 
[V:3] e4f4- | 
[V:4] C,4z4 | 
[V:1] A2G2F4 | 
[V:2] z8 | 
[V:3] f2e2d4 | 
[V:4] z8 | 
[V:1] E8 | 
[V:2] z2c4BA | 
[V:3] c8 | 
[V:4] z4C,4 | 
[V:1] z8 | 
[V:2] B2A4^G2 | 
[V:3] z8 | 
[V:4] D,2A,,2B,,4 | 
[V:1] z2c4BA | 
[V:2] A6GA | 
[V:3] z4c4 | 
[V:4] A,,8 | 
[V:1] B2A4^G2 | 
[V:2] G2A2E4 | 
[V:3] d2A2B4 | 
[V:4] z4E,4 | 
[V:1] A2E2F4 | 
[V:2] z2c2A2B2 | 
[V:3] A8- | 
[V:4] F,2C,2D,4 | 
[V:1] E8- | 
[V:2] c8- | 
[V:3] A8- | 
[V:4] A,,8- | 
[V:1] E8 | 
[V:2] c8 | 
[V:3] A8 | 
[V:4] A,,8 | 
[V:1] [M:2/1](3D4D4F4 | 
[V:2] [M:2/1](3d4d4d4 | 
[V:3] z8 | 
[V:4] z8 | 
[V:1] (3:2:2D8C4 | 
[V:2] (3:2:2f8e4 | 
[V:3] z8 | 
[V:4] z8 | 
[V:1] (3:2:2F8G4 | 
[V:2] (3d6c2B4 | 
[V:3] z8 | 
[V:4] z8 | 
[V:1] (3:2:2A8E4 | 
[V:2] (3A4c4A4 | 
[V:3] [M:3/1](3A4A4c4 | 
[V:4] [M:3/1](3A,4A,4A,4 | 
[V:1] (3:2:2A8B4 | 
[V:2] (3:2:1e12- | 
[V:3] (3:2:2A8G4 | 
[V:4] (3:2:2C8B,4 | 
[V:1] (3c8B2A2 | 
[V:2] (3:2:2e4A8 | 
[V:3] (3:2:2c8d4 | 
[V:4] (3A,6G,2F,4 | 
[V:1] (3:2:1G12 ||  
[V:2] (3:2:1B12 ||  
[V:3] (3:2:1e12 ||  
[V:4] (3:2:1E,12 ||  
[V:1] [M:2/1]A8 | 
[V:2] [M:2/1]z8 | 
[V:3] [M:2/1]z8 | 
[V:4] [M:2/1]z8 | 
[V:1] A4A4 | 
[V:2] z8 | 
[V:3] A8 | 
[V:4] z8 | 
[V:1] c8 | 
[V:2] z8 | 
[V:3] A4A4 | 
[V:4] A,,8 | 
[V:1] c4c4- | 
[V:2] e8 | 
[V:3] c8 | 
[V:4] A,,4A,,4 | 
[V:1] c4c4 | 
[V:2] e8 | 
[V:3] c4c4- | 
[V:4] C,8 | 
[V:1] G8 | 
[V:2] e4g4- | 
[V:3] c4c4 | 
[V:4] C,4C,4- | 
[V:1] c8 | 
[V:2] g4g4 | 
[V:3] !fermata!G8- | 
[V:4] C,4C,4 | 
[V:1] !fermata!B8- | 
[V:2] g4g4 | 
[V:3] G8- | 
[V:4] !fermata!G,,8- | 
[V:1] B8 | 
[V:2] !fermata!d8 | 
[V:3] G8 | 
[V:4] G,,8 | 
[V:1] z8 | 
[V:2] d8 | 
[V:3] z8 | 
[V:4] z8 | 
[V:1] z8 | 
[V:2] d4d4 | 
[V:3] z8 | 
[V:4] D,8 | 
[V:1] A8 | 
[V:2] f4f4 | 
[V:3] z8 | 
[V:4] D,4D,4 | 
[V:1] A4A4 | 
[V:2] f4f4 | 
[V:3] A8 | 
[V:4] F,8 | 
[V:1] c8 | 
[V:2] c8 | 
[V:3] A4A4 | 
[V:4] F,4F,4- | 
[V:1] c4c4- | 
[V:2] f8 | 
[V:3] c8 | 
[V:4] F,4F,4 | 
[V:1] c4c4 | 
[V:2] !fermata!e8- | 
[V:3] c4c4- | 
[V:4] !fermata!C,8- | 
[V:1] !fermata!G8- | 
[V:2] e8- | 
[V:3] c4c4 | 
[V:4] C,8- | 
[V:1] G8 | 
[V:2] e8 | 
[V:3] !fermata!G8 | 
[V:4] C,8 | 
[V:1] z8 | 
[V:2] f8 | 
[V:3] z8 | 
[V:4] z8 | 
[V:1] z8 | 
[V:2] e4d4 | 
[V:3] z8 | 
[V:4] z8 | 
[V:1] c8 | 
[V:2] c4c4 | 
[V:3] z8 | 
[V:4] z8 | 
[V:1] B4A4- | 
[V:2] d6c2 | 
[V:3] z8 | 
[V:4] z8 | 
[V:1] A4G4 | 
[V:2] A2c2B4 | 
[V:3] z8 | 
[V:4] z8 | 
[V:1] A2c3BA2 | 
[V:2] A8 | 
[V:3] z8 | 
[V:4] F,8 | 
[V:1] G2E2F4 | 
[V:2] z8 | 
[V:3] z8 | 
[V:4] E,4D,4 | 
[V:1] E8 | 
[V:2] z8 | 
[V:3] c8 | 
[V:4] C,4C,4 | 
[V:1] z8 | 
[V:2] z4f4 | 
[V:3] B4A4- | 
[V:4] D,6C,2 | 
[V:1] z8 | 
[V:2] e4d4 | 
[V:3] A2G6 | 
[V:4] A,,2C,2B,,4 | 
[V:1] c8 | 
[V:2] c6BA | 
[V:3] A6G2 | 
[V:4] A,,8 | 
[V:1] B4A4 | 
[V:2] G4A2c2- | 
[V:3] E2G2F4 | 
[V:4] z8 | 
[V:1] G4G4 | 
[V:2] c2BAB4 | 
[V:3] E8 | 
[V:4] z8 | 
[V:1] A4c4 | 
[V:2] ABcde2f2- | 
[V:3] z8 | 
[V:4] A,8 | 
[V:1] B2G2A4 | 
[V:2] fee4d2 | 
[V:3] z8 | 
[V:4] G,4F,4 | 
[V:1] G8 | 
[V:2] e2c2B4 | 
[V:3] e8 | 
[V:4] E,4E,4 | 
[V:1] z8 | 
[V:2] A8 | 
[V:3] d4c4 | 
[V:4] F,6E,F, | 
[V:1] z8 | 
[V:2] z8 | 
[V:3] B4B4 | 
[V:4] G,2E,2D,4 | 
[V:1] G4G2G2 | 
[V:2] z8 | 
[V:3] c6B2 | 
[V:4] C,8 | 
[V:1] A4c4 | 
[V:2] c4c2c2 | 
[V:3] A3GA4 | 
[V:4] z8 | 
[V:1] B4A4 | 
[V:2] d4f4 | 
[V:3] G4z4 | 
[V:4] z8 | 
[V:1] G4z4 | 
[V:2] e4d4 | 
[V:3] G4G2G2 | 
[V:4] z8 | 
[V:1] z8 | 
[V:2] c8 | 
[V:3] A4c4 | 
[V:4] C,4C,2C,2 | 
[V:1] z8 | 
[V:2] z8 | 
[V:3] B4A4 | 
[V:4] D,4F,4 | 
[V:1] z8 | 
[V:2] z8 | 
[V:3] G2c4B2 | 
[V:4] E,4D,4 | 
[V:1] G4G2G2 | 
[V:2] e4e2e2 | 
[V:3] c8 | 
[V:4] C,8 | 
[V:1] A4F2G2- | 
[V:2] f4d2e2- | 
[V:3] z8 | 
[V:4] z8 | 
[V:1] GFEDE4 | 
[V:2] edd4^c2 | 
[V:3] z4A4 | 
[V:4] z8 | 
[V:1] D4z4 | 
[V:2] d6e2- | 
[V:3] B4B4 | 
[V:4] G,4G,2G,2 | 
[V:1] z8 | 
[V:2] e2f2d2e2- | 
[V:3] c4A2B2- | 
[V:4] A,4F,2G,2- | 
[V:1] z8 | 
[V:2] e2d4^c2 | 
[V:3] BAA4G2 | 
[V:4] G,F,E,D,E,4 | 
[V:1] z4F4 | 
[V:2] d8 | 
[V:3] A8 | 
[V:4] D,8 | 
[V:1] E4G4 | 
[V:2] z8 | 
[V:3] z2c4B2- | 
[V:4] z8 | 
[V:1] D4F4 | 
[V:2] z8 | 
[V:3] B2d4A2- | 
[V:4] z8 | 
[V:1] E4D2E2- | 
[V:2] z8 | 
[V:3] A2c2B2c2- | 
[V:4] z8 | 
[V:1] E2C2B,4 | 
[V:2] z8 | 
[V:3] cBA4^G2 | 
[V:4] z8 | 
[V:1] A,8 | 
[V:2] z4z2c2- | 
[V:3] A8 | 
[V:4] z4F,4 | 
[V:1] z8 | 
[V:2] c2B4d2- | 
[V:3] z8 | 
[V:4] E,4G,4 | 
[V:1] z8 | 
[V:2] d2A4c2- | 
[V:3] z8 | 
[V:4] D,4F,4 | 
[V:1] z8 | 
[V:2] c2B3Ac2- | 
[V:3] z8 | 
[V:4] E,4D,2E,2- | 
[V:1] z8 | 
[V:2] cBA4^G2 | 
[V:3] z8 | 
[V:4] E,2C,2B,,4 | 
[V:1] z4A4 | 
[V:2] A8 | 
[V:3] z8 | 
[V:4] A,,8 | 
[V:1] c6B2 | 
[V:2] z8 | 
[V:3] z4A4 | 
[V:4] z8 | 
[V:1] A4G4 | 
[V:2] z8 | 
[V:3] c6B2 | 
[V:4] z8 | 
[V:1] A3G/F/EDF2- | 
[V:2] z8 | 
[V:3] A4G2A2- | 
[V:4] z8 | 
[V:1] FEE4D2 | 
[V:2] z4A4 | 
[V:3] AEG2F4 | 
[V:4] z8 | 
[V:1] E8- | 
[V:2] c6B2 | 
[V:3] E8- | 
[V:4] z4A,,4 | 
[V:1] E8- | 
[V:2] A4G4 | 
[V:3] E8- | 
[V:4] C,6B,,2 | 
[V:1] E8- | 
[V:2] A4B2c2- | 
[V:3] E8- | 
[V:4] A,,4G,,2A,,2- | 
[V:1] E8- | 
[V:2] c2BAc4 | 
[V:3] E8- | 
[V:4] A,,2G,,2A,,4 | 
[V:1] E8 ||  
[V:2] B8 ||  
[V:3] E8 ||  
[V:4] E,,8 ||  
[V:1] [M:2/1]D4F4- | 
[V:2] [M:2/1]d4d4- | 
[V:3] [M:2/1]z8 | 
[V:4] [M:2/1]z8 | 
[V:1] F4G4 | 
[V:2] d4e4 | 
[V:3] z8 | 
[V:4] z8 | 
[V:1] E4D4 | 
[V:2] c4d4 | 
[V:3] z8 | 
[V:4] z8 | 
[V:1] z8 | 
[V:2] z8 | 
[V:3] D4F4- | 
[V:4] D,4D,4- | 
[V:1] z8 | 
[V:2] z8 | 
[V:3] F4G4 | 
[V:4] D,4E,4 | 
[V:1] z8 | 
[V:2] z8 | 
[V:3] E4D4 | 
[V:4] C,4D,4 | 
[V:1] D4F4- | 
[V:2] d4d4- | 
[V:3] z8 | 
[V:4] z8 | 
[V:1] F4G4 | 
[V:2] d4e4 | 
[V:3] z8 | 
[V:4] z8 | 
[V:1] A8 | 
[V:2] c4A4 | 
[V:3] z8 | 
[V:4] z8 | 
[V:1] z8 | 
[V:2] z8 | 
[V:3] D4F4- | 
[V:4] D,4D,4- | 
[V:1] z8 | 
[V:2] z8 | 
[V:3] F4G4 | 
[V:4] D,4E,4 | 
[V:1] z8 | 
[V:2] z8 | 
[V:3] A8 | 
[V:4] C,4A,,4 | 
[V:1] A4B4 | 
[V:2] d4d4 | 
[V:3] z8 | 
[V:4] z8 | 
[V:1] A4^G4 | 
[V:2] c4B4 | 
[V:3] z8 | 
[V:4] z8 | 
[V:1] A8 | 
[V:2] A8 | 
[V:3] z8 | 
[V:4] z8 | 
[V:1] z8 | 
[V:2] z8 | 
[V:3] A4B4 | 
[V:4] D,4D,4 | 
[V:1] z8 | 
[V:2] z8 | 
[V:3] A4^G4 | 
[V:4] C,4B,,4 | 
[V:1] z8 | 
[V:2] z8 | 
[V:3] A8 | 
[V:4] A,,8 | 
[V:1] D4F4- | 
[V:2] d4d4- | 
[V:3] z8 | 
[V:4] z8 | 
[V:1] F4G4 | 
[V:2] d4e4 | 
[V:3] z8 | 
[V:4] z8 | 
[V:1] E4D4 | 
[V:2] c4d4 | 
[V:3] z8 | 
[V:4] z8 | 
[V:1] z8 | 
[V:2] z8 | 
[V:3] D4F4- | 
[V:4] D,4D,4- | 
[V:1] z8 | 
[V:2] z8 | 
[V:3] F4G4 | 
[V:4] D,4E,4 | 
[V:1] z8 | 
[V:2] z8 | 
[V:3] E4D4 | 
[V:4] C,4D,4 | 
[V:1] z4F4 | 
[V:2] z4d4 | 
[V:3] z4A4 | 
[V:4] z4D,4 | 
[V:1] E2F2G4 | 
[V:2] e4e4 | 
[V:3] c6B2 | 
[V:4] C,4C,4 | 
[V:1] F4F4- | 
[V:2] d8- | 
[V:3] A2G2A4 | 
[V:4] D,8- | 
[V:1] F2E2D4 | 
[V:2] d4f4 | 
[V:3] z4A4- | 
[V:4] D,4D,4 | 
[V:1] C4D4 | 
[V:2] e4d4 | 
[V:3] A4D4 | 
[V:4] A,,4B,,4 | 
[V:1] E4E4 | 
[V:2] !fermata!c8- | 
[V:3] A4A4 | 
[V:4] !fermata!A,,8- | 
[V:1] !fermata!E8 | 
[V:2] c8 | 
[V:3] !fermata!A8 | 
[V:4] A,,8 | 
[V:1] z8 | 
[V:2] z8 | 
[V:3] z8 | 
[V:4] D,4D,4 | 
[V:1] z8 | 
[V:2] z4d4 | 
[V:3] A4A4 | 
[V:4] C,4D,4 | 
[V:1] z8 | 
[V:2] d4c4- | 
[V:3] G4A4 | 
[V:4] B,,4A,,4 | 
[V:1] A4A4 | 
[V:2] c2d6 | 
[V:3] F4D4 | 
[V:4] z8 | 
[V:1] G4A4 | 
[V:2] B4A4- | 
[V:3] E4F4- | 
[V:4] z4D,4- | 
[V:1] F4D4 | 
[V:2] A2d4cB | 
[V:3] F4G4 | 
[V:4] D,4G,,4 | 
[V:1] E4F4- | 
[V:2] c4F4 | 
[V:3] E4D4 | 
[V:4] z2C,2D,2F,2- | 
[V:1] F4G4 | 
[V:2] z4z2c2- | 
[V:3] z4C4 | 
[V:4] F,2E,D,E,4 | 
[V:1] E4D4 | 
[V:2] c2BAB2c2 | 
[V:3] G6A2 | 
[V:4] C,4G,4- | 
[V:1] z4C4 | 
[V:2] d2B2e4- | 
[V:3] B4c4- | 
[V:4] G,4A,4 | 
[V:1] G8 | 
[V:2] e4e4 | 
[V:3] c4B4 | 
[V:4] E,8 | 
[V:1] A4B4- | 
[V:2] c4d4- | 
[V:3] A4G4 | 
[V:4] z8 | 
[V:1] B4A4 | 
[V:2] d2f4e2 | 
[V:3] d6c2 | 
[V:4] z8 | 
[V:1] c2B2A4 | 
[V:2] c2d2e2f2 | 
[V:3] A2G2c2d2 | 
[V:4] z8 | 
[V:1] G4A4- | 
[V:2] e4c4 | 
[V:3] B4A4- | 
[V:4] E,4F,4 | 
[V:1] A4z4 | 
[V:2] d3cA2c2 | 
[V:3] A4z4 | 
[V:4] D,2F,4E,2 | 
[V:1] z8 | 
[V:2] BAA4^G2 | 
[V:3] d4d4 | 
[V:4] D,2C,2B,,4 | 
[V:1] A4A4 | 
[V:2] A4D4 | 
[V:3] c4d4 | 
[V:4] A,,4z4 | 
[V:1] G4A4 | 
[V:2] E4F4 | 
[V:3] B4A4- | 
[V:4] z8 | 
[V:1] F4D4 | 
[V:2] D8 | 
[V:3] A4B4 | 
[V:4] z8 | 
[V:1] E8 | 
[V:2] z8 | 
[V:3] c4A4- | 
[V:4] z8 | 
[V:1] F4G4 | 
[V:2] z8 | 
[V:3] A4G4 | 
[V:4] z8 | 
[V:1] F2E2D4 | 
[V:2] z8 | 
[V:3] A2c2B4 | 
[V:4] z8 | 
[V:1] C4z4 | 
[V:2] z8 | 
[V:3] A4z4 | 
[V:4] z8 | 
[V:1] F8 | 
[V:2] A8 | 
[V:3] F8 | 
[V:4] D,8 | 
[V:1] E6F2 | 
[V:2] c8 | 
[V:3] G8- | 
[V:4] C,6D,2 | 
[V:1] G4A4- | 
[V:2] B4A2c2- | 
[V:3] G4F4 | 
[V:4] E,4F,4- | 
[V:1] A4G4 | 
[V:2] c2d2e4 | 
[V:3] c8 | 
[V:4] F,4E,4 | 
[V:1] F4D4 | 
[V:2] f8 | 
[V:3] d8 | 
[V:4] D,4B,,4 | 
[V:1] F4E3F | 
[V:2] d4e4- | 
[V:3] A4c4- | 
[V:4] D,4C,4- | 
[V:1] G2E2F4 | 
[V:2] e4d4 | 
[V:3] c2B2A3G | 
[V:4] C,4D,4 | 
[V:1] !fermata!E8 | 
[V:2] !fermata!c8 | 
[V:3] !fermata!A8 | 
[V:4] !fermata!A,,8 | 
[V:1] A4A4- | 
[V:2] d4f4- | 
[V:3] z8 | 
[V:4] z8 | 
[V:1] A4_B4 | 
[V:2] f4g4 | 
[V:3] z8 | 
[V:4] z8 | 
[V:1] G4F4 | 
[V:2] e4f4 | 
[V:3] z8 | 
[V:4] z8 | 
[V:1] z8 | 
[V:2] z8 | 
[V:3] A4A4- | 
[V:4] D,4F,4- | 
[V:1] z8 | 
[V:2] z8 | 
[V:3] A4_B4 | 
[V:4] F,4G,4 | 
[V:1] z8 | 
[V:2] z8 | 
[V:3] G4F4 | 
[V:4] E,4F,4 | 
[V:1] D4F4- | 
[V:2] z4d4 | 
[V:3] z8 | 
[V:4] z8 | 
[V:1] F4D4 | 
[V:2] f8 | 
[V:3] z8 | 
[V:4] z8 | 
[V:1] F6G2 | 
[V:2] d4f4- | 
[V:3] z8 | 
[V:4] z8 | 
[V:1] A3Bc2B2- | 
[V:2] f2e2c2d2- | 
[V:3] z8 | 
[V:4] z8 | 
[V:1] BAA4^G2 | 
[V:2] dcA2B4 | 
[V:3] z8 | 
[V:4] z8 | 
[V:1] A8 | 
[V:2] A8 | 
[V:3] D4F4- | 
[V:4] z4D,4 | 
[V:1] z8 | 
[V:2] z8 | 
[V:3] F4D4 | 
[V:4] F,8 | 
[V:1] z8 | 
[V:2] z8 | 
[V:3] F6G2 | 
[V:4] D,4F,4- | 
[V:1] z8 | 
[V:2] z8 | 
[V:3] A3Bc2B2- | 
[V:4] F,2E,2C,2D,2- | 
[V:1] z8 | 
[V:2] z8 | 
[V:3] BAA4^G2 | 
[V:4] D,C,A,,2B,,4 | 
[V:1] z8 | 
[V:2] z8 | 
[V:3] A8 | 
[V:4] A,,8 | 
[V:1] A4A4- | 
[V:2] d4f4- | 
[V:3] z8 | 
[V:4] z8 | 
[V:1] A4_B4 | 
[V:2] f4g4 | 
[V:3] z8 | 
[V:4] z8 | 
[V:1] G4F4 | 
[V:2] e4f4 | 
[V:3] z8 | 
[V:4] z8 | 
[V:1] z8 | 
[V:2] z8 | 
[V:3] A4A4- | 
[V:4] D,4F,4- | 
[V:1] z8 | 
[V:2] z8 | 
[V:3] A4_B4 | 
[V:4] F,4G,4 | 
[V:1] z8 | 
[V:2] z8 | 
[V:3] G4F4 | 
[V:4] E,4F,4 | 
[V:1] z4F4 | 
[V:2] z4d4 | 
[V:3] z4A4 | 
[V:4] z4D,4 | 
[V:1] E3FG4 | 
[V:2] e4e4 | 
[V:3] c6B2 | 
[V:4] C,4C,4 | 
[V:1] F4F4- | 
[V:2] d8- | 
[V:3] A2G2A4 | 
[V:4] D,8- | 
[V:1] F2E2D4 | 
[V:2] d4f4 | 
[V:3] z4A4- | 
[V:4] D,4D,4 | 
[V:1] C4D4 | 
[V:2] e4d4 | 
[V:3] A4D4 | 
[V:4] A,,4B,,4 | 
[V:1] E4E4 | 
[V:2] !fermata!c8- | 
[V:3] A4A4 | 
[V:4] !fermata!A,,8- | 
[V:1] !fermata!E8 | 
[V:2] c8 | 
[V:3] !fermata!A8 | 
[V:4] A,,8 | 
[V:1] [M:3/1]A4A4A4 | 
[V:2] [M:3/1]f4f4f4 | 
[V:3] [M:3/1]z12 | 
[V:4] [M:3/1]z12 | 
[V:1] G8G4 | 
[V:2] e8e4 | 
[V:3] z12 | 
[V:4] z12 | 
[V:1] A4G4F4 | 
[V:2] f4e4d4 | 
[V:3] z12 | 
[V:4] z12 | 
[V:1] E4z4E4 | 
[V:2] e4c4z4 | 
[V:3] z4z4A4 | 
[V:4] z4z4A,,4 | 
[V:1] F4D4E4 | 
[V:2] d4f4e4 | 
[V:3] A8c4 | 
[V:4] D,8C,4 | 
[V:1] F4D4E4 | 
[V:2] d4f4e4 | 
[V:3] A8c4 | 
[V:4] D,8C,4 | 
[V:1] F8G4 | 
[V:2] d8B4 | 
[V:3] B4A4^G4 | 
[V:4] D,4F,4E,4 | 
[V:1] E4z4E4 | 
[V:2] c4z4c4 | 
[V:3] A8z4 | 
[V:4] A,,8z4 | 
[V:1] F4D4E4 | 
[V:2] d4B4c4 | 
[V:3] z12 | 
[V:4] z12 | 
[V:1] F4D4A4 | 
[V:2] d8f4 | 
[V:3] z12 | 
[V:4] z12 | 
[V:1] A4G4F4 | 
[V:2] f4e4d4 | 
[V:3] z12 | 
[V:4] z12 | 
[V:1] E8z4 | 
[V:2] e4c4z4 | 
[V:3] z12 | 
[V:4] z12 | 
[V:1] E8D4 | 
[V:2] G6A2B4 | 
[V:3] E6F2G4 | 
[V:4] C,8B,,4 | 
[V:1] C8E4 | 
[V:2] c4A4c4 | 
[V:3] A8A4 | 
[V:4] A,,8A,,4 | 
[V:1] G8G4 | 
[V:2] B8c4 | 
[V:3] G8G4 | 
[V:4] E,8E,4 | 
[V:1] A8A4 | 
[V:2] A4c4d4 | 
[V:3] c8A4 | 
[V:4] F,8F,4 | 
[V:1] !fermata!G12 | 
[V:2] !fermata!e12 | 
[V:3] !fermata!B12 | 
[V:4] !fermata!E,12 | 
[V:1] A4A4B4 | 
[V:2] f4f4f4 | 
[V:3] d4d4d4 | 
[V:4] D,4D,4D,4 | 
[V:1] c8B4 | 
[V:2] e8e4 | 
[V:3] c4A4B4 | 
[V:4] A,8G,4 | 
[V:1] A4G4F4 | 
[V:2] f4e4d4 | 
[V:3] c6B2A3G | 
[V:4] F,4C,4D,4 | 
[V:1] E8z4 | 
[V:2] c8z4 | 
[V:3] A8z4 | 
[V:4] A,,8z4 | 
[V:1] E4F4G4 | 
[V:2] c4d4e4 | 
[V:3] z12 | 
[V:4] z12 | 
[V:1] A8G4 | 
[V:2] f8e4 | 
[V:3] z12 | 
[V:4] z12 | 
[V:1] F4G4E4 | 
[V:2] d4B4^c4 | 
[V:3] z12 | 
[V:4] z12 | 
[V:1] D8z4 | 
[V:2] d8z4 | 
[V:3] z12 | 
[V:4] z12 | 
[V:1] A4A4B4 | 
[V:2] f4f4f4 | 
[V:3] d4d4d4 | 
[V:4] D,4D,4D,4 | 
[V:1] c8B4 | 
[V:2] e8e4 | 
[V:3] c4A4B4 | 
[V:4] A,8G,4 | 
[V:1] A4G4F4 | 
[V:2] f4e4d4 | 
[V:3] c6B2A3G | 
[V:4] F,4C,4D,4 | 
[V:1] E8z4 | 
[V:2] c8z4 | 
[V:3] A8z4 | 
[V:4] A,,8z4 | 
[V:1] D4D4F4 | 
[V:2] d4d4d4 | 
[V:3] z12 | 
[V:4] z12 | 
[V:1] D8C4 | 
[V:2] f8e4 | 
[V:3] z12 | 
[V:4] z12 | 
[V:1] F8G4 | 
[V:2] d6c2B4 | 
[V:3] z12 | 
[V:4] z12 | 
[V:1] A8E4 | 
[V:2] A4c4A4 | 
[V:3] A4A4c4 | 
[V:4] A,4A,4A,4 | 
[V:1] A8B4 | 
[V:2] e4c4d4 | 
[V:3] A8G4 | 
[V:4] C8B,4 | 
[V:1] c8B2A2 | 
[V:2] e4A8 | 
[V:3] c8d4 | 
[V:4] A,6G,2F,4 | 
[V:1] G12 |]  
[V:2] B12 |]  
[V:3] e12 |]  
[V:4] E,12 |]  



